content/blogs/regnskap/hva-er-bokforing/bilagsflyt-bokforing.svg

<svg xmlns="http://www.w3.org/2000/svg" width="900" height="400" viewBox="0 0 900 400"><path fill="#f8f9fa" d="M0 0h900v400H0z"/><text x="450" y="30" fill="#2c3e50" font-family="Arial, sans-serif" font-size="20" font-weight="bold" text-anchor="middle">
    Bilagsflyt i Bokføring
  </text><rect width="120" height="80" x="50" y="70" fill="#3498db" stroke="#2980b9" stroke-width="2" rx="8"/><text x="110" y="95" fill="#fff" font-family="Arial, sans-serif" font-size="12" font-weight="bold" text-anchor="middle">
    Innkommende
  </text><text x="110" y="110" fill="#fff" font-family="Arial, sans-serif" font-size="12" font-weight="bold" text-anchor="middle">
    Bilag
  </text><text x="110" y="130" fill="#fff" font-family="Arial, sans-serif" font-size="10" text-anchor="middle">
    • Fakturaer
  </text><text x="110" y="142" fill="#fff" font-family="Arial, sans-serif" font-size="10" text-anchor="middle">
    • Kvitteringer
  </text><path fill="none" stroke="#e74c3c" stroke-width="2" d="M180 110h40l-10-10m10 10-10 10"/><rect width="120" height="80" x="240" y="70" fill="#27ae60" stroke="#229954" stroke-width="2" rx="8"/><text x="300" y="95" fill="#fff" font-family="Arial, sans-serif" font-size="12" font-weight="bold" text-anchor="middle">
    Kontroll og
  </text><text x="300" y="110" fill="#fff" font-family="Arial, sans-serif" font-size="12" font-weight="bold" text-anchor="middle">
    Godkjenning
  </text><text x="300" y="130" fill="#fff" font-family="Arial, sans-serif" font-size="10" text-anchor="middle">
    • Attestering
  </text><text x="300" y="142" fill="#fff" font-family="Arial, sans-serif" font-size="10" text-anchor="middle">
    • Autorisasjon
  </text><path fill="none" stroke="#e74c3c" stroke-width="2" d="M370 110h40l-10-10m10 10-10 10"/><rect width="120" height="80" x="430" y="70" fill="#f39c12" stroke="#e67e22" stroke-width="2" rx="8"/><text x="490" y="95" fill="#fff" font-family="Arial, sans-serif" font-size="12" font-weight="bold" text-anchor="middle">
    Registrering
  </text><text x="490" y="110" fill="#fff" font-family="Arial, sans-serif" font-size="12" font-weight="bold" text-anchor="middle">
    i System
  </text><text x="490" y="130" fill="#fff" font-family="Arial, sans-serif" font-size="10" text-anchor="middle">
    • Kontoføring
  </text><text x="490" y="142" fill="#fff" font-family="Arial, sans-serif" font-size="10" text-anchor="middle">
    • Bilagsnummer
  </text><path fill="none" stroke="#e74c3c" stroke-width="2" d="M560 110h40l-10-10m10 10-10 10"/><rect width="120" height="80" x="620" y="70" fill="#9b59b6" stroke="#8e44ad" stroke-width="2" rx="8"/><text x="680" y="95" fill="#fff" font-family="Arial, sans-serif" font-size="12" font-weight="bold" text-anchor="middle">
    Arkivering
  </text><text x="680" y="110" fill="#fff" font-family="Arial, sans-serif" font-size="12" font-weight="bold" text-anchor="middle">
    og Oppbevaring
  </text><text x="680" y="130" fill="#fff" font-family="Arial, sans-serif" font-size="10" text-anchor="middle">
    • Kronologisk
  </text><text x="680" y="142" fill="#fff" font-family="Arial, sans-serif" font-size="10" text-anchor="middle">
    • 10 år
  </text><text x="450" y="200" fill="#2c3e50" font-family="Arial, sans-serif" font-size="16" font-weight="bold" text-anchor="middle">
    Utgående Bilag
  </text><rect width="120" height="80" x="50" y="220" fill="#e74c3c" stroke="#c0392b" stroke-width="2" rx="8"/><text x="110" y="245" fill="#fff" font-family="Arial, sans-serif" font-size="12" font-weight="bold" text-anchor="middle">
    Opprettelse
  </text><text x="110" y="260" fill="#fff" font-family="Arial, sans-serif" font-size="12" font-weight="bold" text-anchor="middle">
    av Bilag
  </text><text x="110" y="280" fill="#fff" font-family="Arial, sans-serif" font-size="10" text-anchor="middle">
    • Salgsfakturaer
  </text><text x="110" y="292" fill="#fff" font-family="Arial, sans-serif" font-size="10" text-anchor="middle">
    • Utbetalinger
  </text><path fill="none" stroke="#e74c3c" stroke-width="2" d="M180 260h40l-10-10m10 10-10 10"/><rect width="120" height="80" x="240" y="220" fill="#34495e" stroke="#2c3e50" stroke-width="2" rx="8"/><text x="300" y="245" fill="#fff" font-family="Arial, sans-serif" font-size="12" font-weight="bold" text-anchor="middle">
    Utsending
  </text><text x="300" y="260" fill="#fff" font-family="Arial, sans-serif" font-size="12" font-weight="bold" text-anchor="middle">
    til Mottaker
  </text><text x="300" y="280" fill="#fff" font-family="Arial, sans-serif" font-size="10" text-anchor="middle">
    • Post/E-post
  </text><text x="300" y="292" fill="#fff" font-family="Arial, sans-serif" font-size="10" text-anchor="middle">
    • EHF
  </text><path fill="none" stroke="#e74c3c" stroke-width="2" d="M370 260h40l-10-10m10 10-10 10"/><rect width="120" height="80" x="430" y="220" fill="#16a085" stroke="#138d75" stroke-width="2" rx="8"/><text x="490" y="245" fill="#fff" font-family="Arial, sans-serif" font-size="12" font-weight="bold" text-anchor="middle">
    Registrering
  </text><text x="490" y="260" fill="#fff" font-family="Arial, sans-serif" font-size="12" font-weight="bold" text-anchor="middle">
    i Regnskap
  </text><text x="490" y="280" fill="#fff" font-family="Arial, sans-serif" font-size="10" text-anchor="middle">
    • Kundefordring
  </text><text x="490" y="292" fill="#fff" font-family="Arial, sans-serif" font-size="10" text-anchor="middle">
    • Salgsinntekt
  </text><path fill="none" stroke="#e74c3c" stroke-width="2" d="M560 260h40l-10-10m10 10-10 10"/><rect width="120" height="80" x="620" y="220" fill="#7f8c8d" stroke="#6c7b7d" stroke-width="2" rx="8"/><text x="680" y="245" fill="#fff" font-family="Arial, sans-serif" font-size="12" font-weight="bold" text-anchor="middle">
    Oppfølging
  </text><text x="680" y="260" fill="#fff" font-family="Arial, sans-serif" font-size="12" font-weight="bold" text-anchor="middle">
    og Kontroll
  </text><text x="680" y="280" fill="#fff" font-family="Arial, sans-serif" font-size="10" text-anchor="middle">
    • Betalinger
  </text><text x="680" y="292" fill="#fff" font-family="Arial, sans-serif" font-size="10" text-anchor="middle">
    • Purringer
  </text><rect width="700" height="50" x="100" y="330" fill="#ecf0f1" stroke="#bdc3c7" stroke-width="2" rx="8"/><text x="450" y="350" fill="#2c3e50" font-family="Arial, sans-serif" font-size="14" font-weight="bold" text-anchor="middle">
    Viktige Prinsipper for Bilagsbehandling
  </text><text x="200" y="370" fill="#2c3e50" font-family="Arial, sans-serif" font-size="11">
    • Alle bilag må være datert og signert
  </text><text x="450" y="370" fill="#2c3e50" font-family="Arial, sans-serif" font-size="11">
    • Kronologisk nummerering
  </text><text x="650" y="370" fill="#2c3e50" font-family="Arial, sans-serif" font-size="11">
    • Sikker oppbevaring i 10 år
  </text></svg>

<svg width="900" height="400" viewBox="0 0 900 400" xmlns="http://www.w3.org/2000/svg">

  <rect width="900" height="400" fill="#f8f9fa"/>
  

  <text x="450" y="30" text-anchor="middle" font-family="Arial, sans-serif" font-size="20" font-weight="bold" fill="#2c3e50">
    Bilagsflyt i Bokføring
  </text>
  

  <rect x="50" y="70" width="120" height="80" fill="#3498db" stroke="#2980b9" stroke-width="2" rx="8"/>
  <text x="110" y="95" text-anchor="middle" font-family="Arial, sans-serif" font-size="12" font-weight="bold" fill="white">
    Innkommende
  </text>
  <text x="110" y="110" text-anchor="middle" font-family="Arial, sans-serif" font-size="12" font-weight="bold" fill="white">
    Bilag
  </text>
  <text x="110" y="130" text-anchor="middle" font-family="Arial, sans-serif" font-size="10" fill="white">
    • Fakturaer
  </text>
  <text x="110" y="142" text-anchor="middle" font-family="Arial, sans-serif" font-size="10" fill="white">
    • Kvitteringer
  </text>
  

  <path d="M 180 110 L 220 110 L 210 100 M 220 110 L 210 120" stroke="#e74c3c" stroke-width="2" fill="none"/>
  

  <rect x="240" y="70" width="120" height="80" fill="#27ae60" stroke="#229954" stroke-width="2" rx="8"/>
  <text x="300" y="95" text-anchor="middle" font-family="Arial, sans-serif" font-size="12" font-weight="bold" fill="white">
    Kontroll og
  </text>
  <text x="300" y="110" text-anchor="middle" font-family="Arial, sans-serif" font-size="12" font-weight="bold" fill="white">
    Godkjenning
  </text>
  <text x="300" y="130" text-anchor="middle" font-family="Arial, sans-serif" font-size="10" fill="white">
    • Attestering
  </text>
  <text x="300" y="142" text-anchor="middle" font-family="Arial, sans-serif" font-size="10" fill="white">
    • Autorisasjon
  </text>
  

  <path d="M 370 110 L 410 110 L 400 100 M 410 110 L 400 120" stroke="#e74c3c" stroke-width="2" fill="none"/>
  

  <rect x="430" y="70" width="120" height="80" fill="#f39c12" stroke="#e67e22" stroke-width="2" rx="8"/>
  <text x="490" y="95" text-anchor="middle" font-family="Arial, sans-serif" font-size="12" font-weight="bold" fill="white">
    Registrering
  </text>
  <text x="490" y="110" text-anchor="middle" font-family="Arial, sans-serif" font-size="12" font-weight="bold" fill="white">
    i System
  </text>
  <text x="490" y="130" text-anchor="middle" font-family="Arial, sans-serif" font-size="10" fill="white">
    • Kontoføring
  </text>
  <text x="490" y="142" text-anchor="middle" font-family="Arial, sans-serif" font-size="10" fill="white">
    • Bilagsnummer
  </text>
  

  <path d="M 560 110 L 600 110 L 590 100 M 600 110 L 590 120" stroke="#e74c3c" stroke-width="2" fill="none"/>
  

  <rect x="620" y="70" width="120" height="80" fill="#9b59b6" stroke="#8e44ad" stroke-width="2" rx="8"/>
  <text x="680" y="95" text-anchor="middle" font-family="Arial, sans-serif" font-size="12" font-weight="bold" fill="white">
    Arkivering
  </text>
  <text x="680" y="110" text-anchor="middle" font-family="Arial, sans-serif" font-size="12" font-weight="bold" fill="white">
    og Oppbevaring
  </text>
  <text x="680" y="130" text-anchor="middle" font-family="Arial, sans-serif" font-size="10" fill="white">
    • Kronologisk
  </text>
  <text x="680" y="142" text-anchor="middle" font-family="Arial, sans-serif" font-size="10" fill="white">
    • 10 år
  </text>
  

  <text x="450" y="200" text-anchor="middle" font-family="Arial, sans-serif" font-size="16" font-weight="bold" fill="#2c3e50">
    Utgående Bilag
  </text>
  

  <rect x="50" y="220" width="120" height="80" fill="#e74c3c" stroke="#c0392b" stroke-width="2" rx="8"/>
  <text x="110" y="245" text-anchor="middle" font-family="Arial, sans-serif" font-size="12" font-weight="bold" fill="white">
    Opprettelse
  </text>
  <text x="110" y="260" text-anchor="middle" font-family="Arial, sans-serif" font-size="12" font-weight="bold" fill="white">
    av Bilag
  </text>
  <text x="110" y="280" text-anchor="middle" font-family="Arial, sans-serif" font-size="10" fill="white">
    • Salgsfakturaer
  </text>
  <text x="110" y="292" text-anchor="middle" font-family="Arial, sans-serif" font-size="10" fill="white">
    • Utbetalinger
  </text>
  

  <path d="M 180 260 L 220 260 L 210 250 M 220 260 L 210 270" stroke="#e74c3c" stroke-width="2" fill="none"/>
  

  <rect x="240" y="220" width="120" height="80" fill="#34495e" stroke="#2c3e50" stroke-width="2" rx="8"/>
  <text x="300" y="245" text-anchor="middle" font-family="Arial, sans-serif" font-size="12" font-weight="bold" fill="white">
    Utsending
  </text>
  <text x="300" y="260" text-anchor="middle" font-family="Arial, sans-serif" font-size="12" font-weight="bold" fill="white">
    til Mottaker
  </text>
  <text x="300" y="280" text-anchor="middle" font-family="Arial, sans-serif" font-size="10" fill="white">
    • Post/E-post
  </text>
  <text x="300" y="292" text-anchor="middle" font-family="Arial, sans-serif" font-size="10" fill="white">
    • EHF
  </text>
  

  <path d="M 370 260 L 410 260 L 400 250 M 410 260 L 400 270" stroke="#e74c3c" stroke-width="2" fill="none"/>
  

  <rect x="430" y="220" width="120" height="80" fill="#16a085" stroke="#138d75" stroke-width="2" rx="8"/>
  <text x="490" y="245" text-anchor="middle" font-family="Arial, sans-serif" font-size="12" font-weight="bold" fill="white">
    Registrering
  </text>
  <text x="490" y="260" text-anchor="middle" font-family="Arial, sans-serif" font-size="12" font-weight="bold" fill="white">
    i Regnskap
  </text>
  <text x="490" y="280" text-anchor="middle" font-family="Arial, sans-serif" font-size="10" fill="white">
    • Kundefordring
  </text>
  <text x="490" y="292" text-anchor="middle" font-family="Arial, sans-serif" font-size="10" fill="white">
    • Salgsinntekt
  </text>
  

  <path d="M 560 260 L 600 260 L 590 250 M 600 260 L 590 270" stroke="#e74c3c" stroke-width="2" fill="none"/>
  

  <rect x="620" y="220" width="120" height="80" fill="#7f8c8d" stroke="#6c7b7d" stroke-width="2" rx="8"/>
  <text x="680" y="245" text-anchor="middle" font-family="Arial, sans-serif" font-size="12" font-weight="bold" fill="white">
    Oppfølging
  </text>
  <text x="680" y="260" text-anchor="middle" font-family="Arial, sans-serif" font-size="12" font-weight="bold" fill="white">
    og Kontroll
  </text>
  <text x="680" y="280" text-anchor="middle" font-family="Arial, sans-serif" font-size="10" fill="white">
    • Betalinger
  </text>
  <text x="680" y="292" text-anchor="middle" font-family="Arial, sans-serif" font-size="10" fill="white">
    • Purringer
  </text>
  

  <rect x="100" y="330" width="700" height="50" fill="#ecf0f1" stroke="#bdc3c7" stroke-width="2" rx="8"/>
  <text x="450" y="350" text-anchor="middle" font-family="Arial, sans-serif" font-size="14" font-weight="bold" fill="#2c3e50">
    Viktige Prinsipper for Bilagsbehandling
  </text>
  <text x="200" y="370" font-family="Arial, sans-serif" font-size="11" fill="#2c3e50">
    • Alle bilag må være datert og signert
  </text>
  <text x="450" y="370" font-family="Arial, sans-serif" font-size="11" fill="#2c3e50">
    • Kronologisk nummerering
  </text>
  <text x="650" y="370" font-family="Arial, sans-serif" font-size="11" fill="#2c3e50">
    • Sikker oppbevaring i 10 år
  </text>
</svg>
